apps/scalable/rawtherapee.svg

<svg xmlns="http://www.w3.org/2000/svg" style="isolation:isolate" width="256" height="256"><defs><filter id="a" width="270.648" height="254.338" x="-7.32" y="2.95" filterUnits="userSpaceOnUse"><feGaussianBlur xmlns="http://www.w3.org/2000/svg" in="SourceGraphic" stdDeviation="4.294"/><feOffset xmlns="http://www.w3.org/2000/svg" dy="4" result="pf_100_offsetBlur"/><feFlood xmlns="http://www.w3.org/2000/svg" flood-opacity=".4"/><feComposite xmlns="http://www.w3.org/2000/svg" in2="pf_100_offsetBlur" operator="in" result="pf_100_dropShadow"/><feBlend xmlns="http://www.w3.org/2000/svg" in="SourceGraphic" in2="pf_100_dropShadow"/></filter></defs><g filter="url(#a)"><linearGradient id="b" x1=".233" x2=".933" y1="-.071" y2=".995" gradientTransform="matrix(244.648 0 0 228.338 5.676 11.947)" gradientUnits="userSpaceOnUse"><stop offset="0%" stop-color="#e8e8e8"/><stop offset="100%" stop-color="#f5f5f5"/></linearGradient><path fill="url(#b)" d="M165.685 11.947c74.055 0 84.639 10.557 84.639 84.544v59.251c0 73.986-10.584 84.543-84.639 84.543h-75.37c-74.055 0-84.639-10.557-84.639-84.543V96.491c0-73.987 10.584-84.544 84.639-84.544h75.37z"/></g><path fill="#E647FF" d="M128 11.95h37.685c9.257 0 17.522.166 24.899.599 3.688.217 7.153.501 10.41.864 3.257.364 6.305.808 9.157 1.344 2.851.537 5.508 1.164 7.979 1.9 2.472.735 4.761 1.577 6.879 2.536a39.627 39.627 0 0 1 5.856 3.247c.182.124.322.286.501.412L128 126.119V11.95z"/><path fill="#FF3636" d="M24.632 22.854c.18-.126.32-.29.503-.414a39.627 39.627 0 0 1 5.856-3.247c2.118-.959 4.407-1.801 6.879-2.536 2.471-.736 5.126-1.363 7.977-1.9 2.852-.536 5.9-.98 9.157-1.344a200.72 200.72 0 0 1 10.412-.864c7.377-.433 15.642-.599 24.899-.599H128v114.169L24.632 22.854z"/><path fill="#5964FF" d="M231.257 22.763c1.624 1.132 3.148 2.348 4.517 3.715a33.322 33.322 0 0 1 4.044 4.904 39.61 39.61 0 0 1 3.251 5.849c.961 2.116 1.804 4.402 2.541 6.871.736 2.469 1.366 5.121 1.903 7.97a123.64 123.64 0 0 1 1.346 9.146c.364 3.254.649 6.716.866 10.401.434 7.369.599 15.627.599 24.875v29.625H128L231.257 22.763z"/><path fill="#53BDFF" d="M250.324 126.121v29.624c0 9.248-.165 17.505-.599 24.875a199.125 199.125 0 0 1-.866 10.402 123.748 123.748 0 0 1-1.346 9.147c-.537 2.848-1.167 5.5-1.903 7.97-.737 2.469-1.58 4.755-2.541 6.87a39.572 39.572 0 0 1-3.251 5.85 33.313 33.313 0 0 1-4.044 4.903c-1.369 1.368-2.893 2.583-4.517 3.716L128 126.121h122.324z"/><path fill="#FF7221" d="M5.676 126.119V96.494c0-9.248.165-17.506.599-24.875.217-3.685.502-7.147.866-10.401a123.64 123.64 0 0 1 1.346-9.146c.537-2.849 1.167-5.501 1.903-7.97.737-2.469 1.578-4.755 2.539-6.871a39.618 39.618 0 0 1 3.253-5.849 33.31 33.31 0 0 1 4.042-4.904c1.369-1.367 2.895-2.583 4.519-3.715L128 126.119H5.676z"/><path fill="#FFAC29" d="M24.741 229.476c-1.623-1.133-3.149-2.347-4.517-3.714a33.301 33.301 0 0 1-4.042-4.903 39.579 39.579 0 0 1-3.253-5.85c-.961-2.115-1.802-4.401-2.539-6.87-.736-2.47-1.366-5.122-1.903-7.97a123.748 123.748 0 0 1-1.346-9.147 199.125 199.125 0 0 1-.866-10.402c-.434-7.37-.599-15.627-.599-24.875v-29.624H128L24.741 229.476z"/><path fill="#80FFE5" d="M231.366 229.388c-.179.126-.319.288-.501.412a39.536 39.536 0 0 1-5.856 3.247c-2.118.96-4.407 1.802-6.879 2.537-2.471.735-5.128 1.363-7.979 1.899-2.852.537-5.9.98-9.157 1.344-3.257.364-6.722.648-10.41.864-7.377.433-15.642.597-24.899.597H128V126.119l103.366 103.269z"/><path fill="#73FF44" d="M128 240.288H90.315c-9.257 0-17.522-.164-24.899-.597-3.688-.216-7.155-.5-10.412-.864-3.257-.364-6.305-.807-9.157-1.344-2.851-.536-5.506-1.164-7.977-1.899-2.472-.735-4.761-1.577-6.879-2.537a39.536 39.536 0 0 1-5.856-3.247c-.182-.124-.322-.286-.501-.412L128 126.121v114.167z"/><defs><filter id="c" width="156.603" height="156.603" x="49.7" y="47.82" filterUnits="userSpaceOnUse"><feGaussianBlur xmlns="http://www.w3.org/2000/svg" stdDeviation=".794"/></filter></defs><circle r="1" transform="matrix(-76.453 0 0 76.453 128 126.12)" vector-effect="non-scaling-stroke" opacity=".4" filter="url(#c)"/><circle fill="#FFF" r="1" transform="matrix(-76.453 0 0 76.453 128 126.12)" vector-effect="non-scaling-stroke"/><g opacity=".4"><linearGradient id="d" x1=".517" x2=".517" y2="1"><stop offset="0%" stop-color="#fff"/><stop offset="12.5%" stop-opacity=".098" stop-color="#fff"/><stop offset="92.5%" stop-opacity=".098"/><stop offset="100%" stop-opacity=".498"/></linearGradient><path fill="none" stroke="url(#d)" stroke-linecap="round" stroke-linejoin="round" stroke-width="4.077" d="M165.685 11.947c74.055 0 84.639 10.557 84.639 84.544v59.251c0 73.986-10.584 84.543-84.639 84.543h-75.37c-74.055 0-84.639-10.557-84.639-84.543V96.491c0-73.987 10.584-84.544 84.639-84.544h75.37z" vector-effect="non-scaling-stroke"/></g><g opacity=".1"><path fill="#FFF" d="M5.676 126.116v29.626c0 73.986 10.584 84.543 84.639 84.543h75.37c74.055 0 84.639-10.557 84.639-84.543v-29.626H5.676z"/></g></svg>

<svg xmlns="http://www.w3.org/2000/svg" style="isolation:isolate" width="256" height="256" viewBox="0 0 256 256">
 <defs>
  <filter id="cYvmisB7XoZ7HHvIsZXI9eIsvd8NVjVp" width="270.648" height="254.338" x="-7.32" y="2.95" filterUnits="userSpaceOnUse">
   <feGaussianBlur xmlns="http://www.w3.org/2000/svg" in="SourceGraphic" stdDeviation="4.294"/>
   <feOffset xmlns="http://www.w3.org/2000/svg" dx="0" dy="4" result="pf_100_offsetBlur"/>
   <feFlood xmlns="http://www.w3.org/2000/svg" flood-opacity=".4"/>
   <feComposite xmlns="http://www.w3.org/2000/svg" in2="pf_100_offsetBlur" operator="in" result="pf_100_dropShadow"/>
   <feBlend xmlns="http://www.w3.org/2000/svg" in="SourceGraphic" in2="pf_100_dropShadow" mode="normal"/>
  </filter>
 </defs>
 <g filter="url(#cYvmisB7XoZ7HHvIsZXI9eIsvd8NVjVp)">
  <linearGradient id="_lgradient_51" x1=".233" x2=".933" y1="-.071" y2=".995" gradientTransform="matrix(244.648,0,0,228.338,5.676,11.947)" gradientUnits="userSpaceOnUse">
   <stop offset="0%" style="stop-color:rgb(232,232,232)"/>
   <stop offset="100%" style="stop-color:rgb(245,245,245)"/>
  </linearGradient>
  <path fill="url(#_lgradient_51)" d="M 165.685 11.947 C 239.74 11.947 250.324 22.504 250.324 96.491 L 250.324 155.742 C 250.324 229.728 239.74 240.285 165.685 240.285 L 90.315 240.285 C 16.26 240.285 5.676 229.728 5.676 155.742 L 5.676 96.491 C 5.676 22.504 16.26 11.947 90.315 11.947 L 165.685 11.947 Z"/>
 </g>
 <g>
  <path fill="#E647FF" d="M 128 11.95 L 165.685 11.95 C 174.942 11.95 183.207 12.116 190.584 12.549 C 194.272 12.766 197.737 13.05 200.994 13.413 C 204.251 13.777 207.299 14.221 210.151 14.757 C 213.002 15.294 215.659 15.921 218.13 16.657 C 220.602 17.392 222.891 18.234 225.009 19.193 C 227.127 20.153 229.075 21.23 230.865 22.44 C 231.047 22.564 231.187 22.726 231.366 22.852 L 128 126.119 L 128 11.95 Z"/>
  <path fill="#FF3636" d="M 24.632 22.854 C 24.812 22.728 24.952 22.564 25.135 22.44 C 26.925 21.23 28.873 20.153 30.991 19.193 C 33.109 18.234 35.398 17.392 37.87 16.657 C 40.341 15.921 42.996 15.294 45.847 14.757 C 48.699 14.221 51.747 13.777 55.004 13.413 C 58.261 13.05 61.728 12.766 65.416 12.549 C 72.793 12.116 81.058 11.95 90.315 11.95 L 128 11.95 L 128 126.119 L 24.632 22.854 Z"/>
  <path fill="#5964FF" d="M 231.257 22.763 C 232.881 23.895 234.405 25.111 235.774 26.478 C 237.262 27.964 238.606 29.594 239.818 31.382 C 241.029 33.17 242.108 35.116 243.069 37.231 C 244.03 39.347 244.873 41.633 245.61 44.102 C 246.346 46.571 246.976 49.223 247.513 52.072 C 248.05 54.92 248.495 57.964 248.859 61.218 C 249.223 64.472 249.508 67.934 249.725 71.619 C 250.159 78.988 250.324 87.246 250.324 96.494 L 250.324 126.119 L 128 126.119 L 231.257 22.763 Z"/>
  <path fill="#53BDFF" d="M 250.324 126.121 L 250.324 155.745 C 250.324 164.993 250.159 173.25 249.725 180.62 C 249.508 184.304 249.223 187.769 248.859 191.022 C 248.495 194.276 248.05 197.32 247.513 200.169 C 246.976 203.017 246.346 205.669 245.61 208.139 C 244.873 210.608 244.03 212.894 243.069 215.009 C 242.108 217.125 241.029 219.071 239.818 220.859 C 238.606 222.647 237.262 224.276 235.774 225.762 C 234.405 227.13 232.881 228.345 231.257 229.478 L 128 126.121 L 250.324 126.121 Z"/>
  <path fill="#FF7221" d="M 5.676 126.119 L 5.676 96.494 C 5.676 87.246 5.841 78.988 6.275 71.619 C 6.492 67.934 6.777 64.472 7.141 61.218 C 7.505 57.964 7.95 54.92 8.487 52.072 C 9.024 49.223 9.654 46.571 10.39 44.102 C 11.127 41.633 11.968 39.347 12.929 37.231 C 13.89 35.116 14.971 33.17 16.182 31.382 C 17.394 29.594 18.736 27.964 20.224 26.478 C 21.593 25.111 23.119 23.895 24.743 22.763 L 128 126.119 L 5.676 126.119 Z"/>
  <path fill="#FFAC29" d="M 24.741 229.476 C 23.118 228.343 21.592 227.129 20.224 225.762 C 18.736 224.276 17.394 222.647 16.182 220.859 C 14.971 219.071 13.89 217.125 12.929 215.009 C 11.968 212.894 11.127 210.608 10.39 208.139 C 9.654 205.669 9.024 203.017 8.487 200.169 C 7.95 197.32 7.505 194.276 7.141 191.022 C 6.777 187.769 6.492 184.304 6.275 180.62 C 5.841 173.25 5.676 164.993 5.676 155.745 L 5.676 126.121 L 128 126.121 L 24.741 229.476 Z"/>
  <path fill="#80FFE5" d="M 231.366 229.388 C 231.187 229.514 231.047 229.676 230.865 229.8 C 229.075 231.01 227.127 232.088 225.009 233.047 C 222.891 234.007 220.602 234.849 218.13 235.584 C 215.659 236.319 213.002 236.947 210.151 237.483 C 207.299 238.02 204.251 238.463 200.994 238.827 C 197.737 239.191 194.272 239.475 190.584 239.691 C 183.207 240.124 174.942 240.288 165.685 240.288 L 128 240.288 L 128 126.119 L 231.366 229.388 Z"/>
  <path fill="#73FF44" d="M 128 240.288 L 90.315 240.288 C 81.058 240.288 72.793 240.124 65.416 239.691 C 61.728 239.475 58.261 239.191 55.004 238.827 C 51.747 238.463 48.699 238.02 45.847 237.483 C 42.996 236.947 40.341 236.319 37.87 235.584 C 35.398 234.849 33.109 234.007 30.991 233.047 C 28.873 232.088 26.925 231.01 25.135 229.8 C 24.953 229.676 24.813 229.514 24.634 229.388 L 128 126.121 L 128 240.288 Z"/>
  <defs>
   <filter id="090PMFKYhs6itNCrz33oBI1oHciBJLXa" width="156.603" height="156.603" x="49.7" y="47.82" filterUnits="userSpaceOnUse">
    <feGaussianBlur xmlns="http://www.w3.org/2000/svg" stdDeviation=".794"/>
   </filter>
  </defs>
  <g opacity=".4" filter="url(#090PMFKYhs6itNCrz33oBI1oHciBJLXa)">
   <circle cx="0" cy="0" r="1" transform="matrix(-76.453,0,0,76.453,128,126.12)" vector-effect="non-scaling-stroke"/>
  </g>
  <circle fill="#FFFFFF" cx="0" cy="0" r="1" transform="matrix(-76.453,0,0,76.453,128,126.12)" vector-effect="non-scaling-stroke"/>
 </g>
 <g opacity=".4">
  <linearGradient id="_lgradient_52" x1=".517" x2=".517" y1="0" y2="1">
   <stop offset="0%" style="stop-color:rgb(255,255,255)"/>
   <stop offset="12.5%" stop-opacity=".098" style="stop-color:rgb(255,255,255)"/>
   <stop offset="92.5%" stop-opacity=".098" style="stop-color:rgb(0,0,0)"/>
   <stop offset="100%" stop-opacity=".498" style="stop-color:rgb(0,0,0)"/>
  </linearGradient>
  <path fill="none" stroke="url(#_lgradient_52)" stroke-linecap="round" stroke-linejoin="round" stroke-width="4.077" d="M 165.685 11.947 C 239.74 11.947 250.324 22.504 250.324 96.491 L 250.324 155.742 C 250.324 229.728 239.74 240.285 165.685 240.285 L 90.315 240.285 C 16.26 240.285 5.676 229.728 5.676 155.742 L 5.676 96.491 C 5.676 22.504 16.26 11.947 90.315 11.947 L 165.685 11.947 Z" vector-effect="non-scaling-stroke"/>
 </g>
 <g opacity=".1">
  <path fill="#FFFFFF" d="M 5.676 126.116 L 5.676 155.742 C 5.676 229.728 16.26 240.285 90.315 240.285 L 165.685 240.285 C 239.74 240.285 250.324 229.728 250.324 155.742 L 250.324 126.116 L 5.676 126.116 Z"/>
 </g>
</svg>
